src/assets/media/svg/sprite/full-screen.svg

<svg width="24" height="24" viewBox="0 0 24 24"  xmlns="http://www.w3.org/2000/svg">
<path d="M21 19.4092L15.4204 13.8296L13.8296 15.4204L19.4092 21H16.125V23.25H23.25V16.125H21V19.4092Z" />
<path d="M16.125 0.75V3H19.4092L13.8296 8.57963L15.4204 10.1704L21 4.59113V7.875H23.25V0.75H16.125Z" />
<path d="M7.875 3V0.75H0.75V7.875H3V4.59112L8.57963 10.1696L10.1704 8.5785L4.59113 3H7.875Z" />
<path d="M8.57963 13.8319L3 19.4096V16.125H0.75V23.25H7.875V21H4.5915L10.1704 15.4226L8.57963 13.8319Z" />
</svg>

<svg xmlns="http://www.w3.org/2000/svg" width="24" height="24"><path d="m21 19.41-5.58-5.58-1.59 1.59L19.41 21h-3.285v2.25h7.125v-7.125H21zM16.125.75V3h3.284l-5.58 5.58 1.591 1.59L21 4.591v3.284h2.25V.75zM7.875 3V.75H.75v7.125H3V4.591l5.58 5.579 1.59-1.591L4.591 3zm.705 10.832L3 19.41v-3.285H.75v7.125h7.125V21H4.592l5.578-5.577z"/></svg>
